; generated by PrusaSlicer 2.4.2+win64 on 2022-05-16 at 21:59:57 UTC


;
;
; 

; external perimeters extrusion width = 0.60mm
; perimeters extrusion width = 0.50mm
; infill extrusion width = 0.50mm
; solid infill extrusion width = 0.50mm
; top infill extrusion width = 0.45mm
; support material extrusion width = 0.38mm
; first layer extrusion width = 0.42mm

; external perimeters extrusion width = 0.60mm
; perimeters extrusion width = 0.50mm
; infill extrusion width = 0.50mm
; solid infill extrusion width = 0.50mm
; top infill extrusion width = 0.45mm
; support material extrusion width = 0.38mm
; first layer extrusion width = 0.42mm

M73 P0 R9
M73 Q0 S9
M201 X1000 Y1000 Z200 E5000 ; sets maximum accelerations, mm/sec^2
M203 X200 Y200 Z12 E120 ; sets maximum feedrates, mm / sec
M204 P1250 R1250 T1250 ; sets acceleration (P, T) and retract acceleration (R), mm/sec^2
M205 X8.00 Y8.00 Z0.40 E4.50 ; sets the jerk limits, mm/sec
M205 S0 T0 ; sets the minimum extruding and travel feed rate, mm/sec
M107
;TYPE:Custom
M862.3 P "MK3S" ; printer model check
M862.1 P0.4 ; nozzle diameter check
M115 U3.11.0 ; tell printer latest fw version
G90 ; use absolute coordinates
M83 ; extruder relative mode
M104 S215 ; set extruder temp
M140 S60 ; set bed temp
M190 S60 ; wait for bed temp
M109 S215 ; wait for extruder temp
G28 W ; home all without mesh bed level
G80 ; mesh bed leveling
G1 Z0.2 F720
G1 Y-3 F1000 ; go outside print area
G92 E0
G1 X60 E9 F1000 ; intro line
G1 X100 E12.5 F1000 ; intro line
G92 E0
M221 S95

; Don't change E values below. Excessive value can damage the printer.

M907 E538 ; set extruder motor current
G21 ; set units to millimeters
G90 ; use absolute coordinates
M83 ; use relative distances for extrusion
M900 K0.05 ; Filament gcode LA 1.5
M900 K30 ; Filament gcode LA 1.0
M107
;LAYER_CHANGE
;Z:0.2
;HEIGHT:0.2
;BEFORE_LAYER_CHANGE
G92 E0.0
;0.2


G1 E-.8 F2100
M73 P1 R9
M73 Q1 S9
G1 Z.4 F720
;AFTER_LAYER_CHANGE
;0.2
G1 X121.764 Y95.852 F10800
G1 Z.2 F720
G1 E.8 F2100
M204 S800
;TYPE:Skirt/Brim
;WIDTH:0.42
G1 F1200
G1 X122.741 Y94.662 E.04828
G1 X123.447 Y94.083 E.0286
G1 X124.248 Y93.602 E.0293
G1 X125.099 Y93.25 E.02889
G1 X125.997 Y93.025 E.02904
G1 X127.528 Y92.95 E.04804
G1 X128.753 Y93.164 E.03901
G1 X130.151 Y93.743 E.04743
G1 X131.395 Y94.662 E.04849
G1 X132.201 Y95.596 E.03869
G1 X132.808 Y96.667 E.03862
G1 X133.253 Y98.132 E.048
G1 X133.33 Y99.673 E.04839
G1 X133.12 Y100.886 E.03859
G1 X128.794 Y113.036 E.40438
G1 X128.395 Y113.883 E.02937
G1 X127.884 Y114.649 E.02886
G1 X127.264 Y115.332 E.02892
G1 X126.548 Y115.921 E.02908
G1 X125.758 Y116.395 E.02888
G1 X124.9 Y116.75 E.02911
G1 X124.018 Y116.972 E.0285
G1 X123.084 Y117.065 E.02945
G1 X122.158 Y117.019 E.02908
G1 X121.256 Y116.839 E.02882
G1 X120.112 Y116.398 E.03845
G1 X119.068 Y115.737 E.03872
G1 X118.179 Y114.891 E.03849
G1 X117.471 Y113.886 E.03855
G1 X116.969 Y112.755 E.03878
G1 X116.701 Y111.563 E.03831
G1 X116.67 Y110.327 E.03879
G1 X116.88 Y109.116 E.03853
G1 X121.209 Y96.953 E.40481
G1 X121.737 Y95.905 E.03678
M204 S1000
M73 P1 R8
G1 X122.072 Y96.075 F10800
M204 S800
G1 F1200
G1 X122.994 Y94.941 E.0458
G1 X123.677 Y94.382 E.02768
G1 X124.409 Y93.943 E.02674
G1 X125.226 Y93.605 E.02774
G1 X126.052 Y93.398 E.02671
G1 X127.509 Y93.327 E.04574
G1 X128.66 Y93.529 E.03665
M73 Q2 S9
G1 X129.958 Y94.066 E.04402
G1 X131.142 Y94.941 E.04617
G1 X131.898 Y95.821 E.03636
G1 X132.468 Y96.829 E.0363
G1 X132.88 Y98.188 E.04455
M73 P2 R8
G1 X132.954 Y99.655 E.04605
G1 X132.754 Y100.795 E.03627
G1 X128.439 Y112.909 E.40322
G1 X127.763 Y114.178 E.0451
M73 Q2 S8
G1 X127.2 Y114.864 E.02782
G1 X126.571 Y115.434 E.0266
G1 X125.837 Y115.926 E.0277
G1 X125.064 Y116.291 E.0268
G1 X124.22 Y116.547 E.02765
G1 X123.375 Y116.673 E.0268
G1 X122.49 Y116.673 E.02775
G1 X121.348 Y116.473 E.03634
G1 X120.273 Y116.057 E.03615
G1 X119.293 Y115.434 E.03639
G1 X118.458 Y114.637 E.03619
G1 X117.794 Y113.692 E.03622
G1 X117.325 Y112.628 E.03646
G1 X117.074 Y111.507 E.03602
G1 X117.046 Y110.345 E.03645
G1 X117.245 Y109.207 E.03621
G1 X121.564 Y97.08 E.40365
G1 X122.045 Y96.128 E.03342
M204 S1000
G1 X122.381 Y96.299 F10800
M204 S800
G1 F1200
G1 X122.411 Y96.24 E.00208
G1 X123.247 Y95.221 E.04132
G1 X123.902 Y94.685 E.02654
G1 X124.569 Y94.284 E.02441
G1 X125.353 Y93.96 E.02659
G1 X126.107 Y93.771 E.02438
G1 X127.491 Y93.703 E.04344
G1 X128.568 Y93.895 E.03428
G1 X129.764 Y94.39 E.04061
G1 X130.889 Y95.221 E.04384
G1 X131.595 Y96.045 E.03403
G1 X132.127 Y96.99 E.03398
G1 X132.508 Y98.244 E.0411
G1 X132.577 Y99.637 E.04372
G1 X132.388 Y100.703 E.03395
G1 X128.084 Y112.782 E.40206
G1 X127.46 Y113.954 E.04162
G1 X126.92 Y114.611 E.02667
G1 X126.346 Y115.131 E.02429
G1 X125.643 Y115.602 E.02655
G1 X124.937 Y115.936 E.02447
G1 X124.128 Y116.181 E.0265
G1 X123.356 Y116.297 E.02448
G1 X122.508 Y116.297 E.02661
G1 X121.44 Y116.107 E.03401
G1 X120.433 Y115.716 E.03386
G1 X119.518 Y115.131 E.03406
G1 X118.737 Y114.384 E.03388
G1 X118.117 Y113.498 E.0339
G1 X117.68 Y112.501 E.03413
G1 X117.447 Y111.451 E.03374
G1 X117.423 Y110.363 E.03411
G1 X117.611 Y109.299 E.03389
G1 X121.92 Y97.207 E.40249
G1 X122.353 Y96.352 E.03005
M204 S1000
; printing object FauxVOLVER (1).stl id:1 copy 0
;WIPE_START
M73 Q3 S8
G1 F8640
G1 X122.411 Y96.24 E-.02914
G1 X123.247 Y95.221 E-.30429
G1 X123.902 Y94.685 E-.19545
M73 P3 R8
G1 X124.569 Y94.284 E-.17974
G1 X124.775 Y94.199 E-.05139
;WIPE_END
G1 E-.04 F2100
G1 Z.6 F720
G1 X122.705 Y108.861 F10800
G1 Z.2 F720
G1 E.8 F2100
M204 S800
;TYPE:Perimeter
G1 F1200
G1 X123.123 Y108.854 E.01312
G1 X123.496 Y108.928 E.01191
G1 X123.848 Y109.074 E.01196
G1 X124.164 Y109.286 E.01193
G1 X124.435 Y109.556 E.01199
G1 X124.644 Y109.871 E.01188
G1 X124.791 Y110.223 E.01194
G1 X124.865 Y110.596 E.01195
G1 X124.865 Y110.979 E.01199
G1 X124.791 Y111.351 E.0119
G1 X124.645 Y111.703 E.01196
G1 X124.435 Y112.019 E.01189
G1 X124.164 Y112.29 E.01202
G1 X123.848 Y112.5 E.01188
G1 X123.497 Y112.647 E.01194
G1 X123.122 Y112.721 E.01197
G1 X122.742 Y112.721 E.01192
G1 X122.367 Y112.647 E.01197
G1 X122.016 Y112.5 E.01194
G1 X121.701 Y112.29 E.01188
G1 X121.43 Y112.019 E.01202
G1 X121.219 Y111.703 E.01189
G1 X121.073 Y111.351 E.01197
G1 X120.999 Y110.978 E.01193
G1 X120.999 Y110.597 E.01193
G1 X121.073 Y110.223 E.01197
G1 X121.22 Y109.871 E.01194
G1 X121.43 Y109.556 E.01188
G1 X121.7 Y109.286 E.01199
G1 X122.016 Y109.074 E.01193
G1 X122.368 Y108.928 E.01196
G1 X122.646 Y108.873 E.00887
M204 S1000
G1 X122.778 Y109.231 F10800
M204 S800
;TYPE:External perimeter
G1 F1200
G1 X123.086 Y109.231 E.00966
G1 X123.386 Y109.291 E.00959
G1 X123.669 Y109.408 E.00962
G1 X123.924 Y109.578 E.0096
G1 X124.141 Y109.796 E.00965
G1 X124.31 Y110.05 E.00957
G1 X124.429 Y110.333 E.00962
G1 X124.488 Y110.633 E.0096
G1 X124.488 Y110.941 E.00966
G1 X124.429 Y111.241 E.00956
G1 X124.31 Y111.525 E.00965
G1 X124.141 Y111.779 E.00957
G1 X123.923 Y111.997 E.00966
G1 X123.669 Y112.166 E.00957
G1 X123.386 Y112.284 E.00962
G1 X123.085 Y112.344 E.00963
G1 X122.779 Y112.344 E.0096
G1 X122.478 Y112.284 E.00963
G1 X122.195 Y112.166 E.00962
G1 X121.941 Y111.997 E.00957
G1 X121.723 Y111.779 E.00966
G1 X121.554 Y111.525 E.00957
G1 X121.435 Y111.241 E.00965
G1 X121.376 Y110.941 E.00959
G1 X121.376 Y110.634 E.0096
G1 X121.435 Y110.333 E.00963
G1 X121.554 Y110.05 E.00962
G1 X121.723 Y109.796 E.00957
G1 X121.94 Y109.578 E.00965
G1 X122.195 Y109.408 E.0096
G1 X122.478 Y109.291 E.00962
G1 X122.719 Y109.243 E.00771
M204 S1000
G1 X122.905 Y108.951 F10800
G1 X122.739 Y108.435
M204 S800
;TYPE:Perimeter
G1 F1200
G1 X123.165 Y108.437 E.01333
G1 X123.616 Y108.527 E.01444
G1 X124.046 Y108.705 E.01458
G1 X124.431 Y108.962 E.01451
G1 X124.758 Y109.289 E.01451
G1 X125.015 Y109.674 E.01452
G1 X125.192 Y110.101 E.01448
G1 X125.283 Y110.556 E.01456
G1 X125.283 Y111.018 E.01449
G1 X125.192 Y111.473 E.01453
G1 X125.015 Y111.901 E.01453
G1 X124.758 Y112.285 E.01448
G1 X124.43 Y112.614 E.01456
G1 X124.046 Y112.87 E.01448
G1 X123.617 Y113.047 E.01454
G1 X123.163 Y113.138 E.01452
G1 X122.701 Y113.138 E.0145
G1 X122.247 Y113.047 E.01452
G1 X121.818 Y112.87 E.01454
G1 X121.434 Y112.614 E.01448
G1 X121.106 Y112.285 E.01456
G1 X120.849 Y111.901 E.01448
G1 X120.672 Y111.473 E.01453
G1 X120.581 Y111.018 E.01453
G1 X120.581 Y110.556 E.01449
G1 X120.672 Y110.101 E.01456
G1 X120.849 Y109.674 E.01448
G1 X121.106 Y109.289 E.01452
G1 X121.434 Y108.962 E.01451
G1 X121.818 Y108.705 E.01451
G1 X122.248 Y108.527 E.01458
G1 X122.68 Y108.44 E.01381
M204 S1000
G1 X122.721 Y108.058 F10800
M204 S800
;TYPE:External perimeter
G1 F1200
G1 X123.201 Y108.061 E.01505
G1 X123.467 Y108.1 E.00841
G1 X123.726 Y108.166 E.0084
G1 X123.98 Y108.257 E.00846
G1 X124.224 Y108.372 E.00844
G1 X124.454 Y108.51 E.00842
G1 X124.67 Y108.67 E.00843
G1 X124.869 Y108.85 E.00841
G1 X125.05 Y109.05 E.00845
G1 X125.21 Y109.266 E.00843
G1 X125.348 Y109.496 E.00843
G1 X125.463 Y109.738 E.00841
G1 X125.553 Y109.991 E.00842
G1 X125.619 Y110.253 E.00845
G1 X125.659 Y110.519 E.00844
G1 X125.672 Y110.787 E.00843
G1 X125.659 Y111.056 E.00842
G1 X125.619 Y111.321 E.00841
G1 X125.553 Y111.582 E.00845
G1 X125.463 Y111.836 E.00843
G1 X125.348 Y112.079 E.00844
G1 X125.21 Y112.309 E.00842
G1 X125.05 Y112.525 E.00842
G1 X124.869 Y112.724 E.00844
G1 X124.669 Y112.905 E.00845
G1 X124.454 Y113.065 E.00842
G1 X124.224 Y113.203 E.00842
G1 X123.98 Y113.318 E.00844
G1 X123.727 Y113.409 E.00844
G1 X123.467 Y113.474 E.00842
G1 X123.201 Y113.514 E.00843
G1 X122.932 Y113.527 E.00843
G1 X122.664 Y113.514 E.00843
G1 X122.398 Y113.474 E.00843
G1 X122.137 Y113.409 E.00842
G1 X121.884 Y113.318 E.00844
G1 X121.64 Y113.203 E.00844
G1 X121.41 Y113.065 E.00842
G1 X121.195 Y112.905 E.00842
G1 X120.995 Y112.724 E.00845
G1 X120.814 Y112.525 E.00844
G1 X120.654 Y112.309 E.00842
G1 X120.516 Y112.079 E.00842
G1 X120.401 Y111.836 E.00844
G1 X120.311 Y111.582 E.00843
G1 X120.246 Y111.321 E.00845
G1 X120.206 Y111.056 E.00841
G1 X120.193 Y110.787 E.00842
G1 X120.206 Y110.519 E.00843
G1 X120.246 Y110.253 E.00844
G1 X120.311 Y109.991 E.00845
G1 X120.401 Y109.738 E.00842
G1 X120.516 Y109.496 E.00841
G1 X120.654 Y109.266 E.00843
G1 X120.814 Y109.05 E.00843
G1 X120.995 Y108.85 E.00845
G1 X121.194 Y108.67 E.00841
G1 X121.41 Y108.51 E.00843
G1 X121.64 Y108.372 E.00842
G1 X121.884 Y108.257 E.00844
G1 X122.138 Y108.166 E.00846
G1 X122.398 Y108.1 E.0084
G1 X122.661 Y108.061 E.00836
M204 S1000
G1 X122.941 Y108.393 F10800
; stop printing object FauxVOLVER (1).stl id:1 copy 0
; printing object FauxVOLVER.stl id:0 copy 0
;WIPE_START
G1 F8640
G1 X123.201 Y108.061 E-.12468
G1 X123.467 Y108.1 E-.06193
G1 X123.726 Y108.166 E-.06189
G1 X123.98 Y108.257 E-.06228
G1 X124.224 Y108.372 E-.06214
G1 X124.454 Y108.51 E-.06199
G1 X124.67 Y108.67 E-.06209
G1 X124.869 Y108.85 E-.06193
G1 X125.05 Y109.05 E-.06225
G1 X125.21 Y109.266 E-.06208
G1 X125.348 Y109.496 E-.06205
G1 X125.375 Y109.554 E-.01471
;WIPE_END
G1 E-.04 F2100
G1 Z.6 F720
G1 X126.122 Y100.905 F10800
G1 Z.2 F720
G1 E.8 F2100
M204 S800
;TYPE:Perimeter
G1 F1200
G1 X125.836 Y100.715 E.01074
G1 X125.565 Y100.444 E.01202
G1 X125.355 Y100.128 E.01189
G1 X125.209 Y99.776 E.01197
G1 X125.135 Y99.403 E.01193
G1 X125.135 Y99.022 E.01193
G1 X125.209 Y98.648 E.01197
G1 X125.356 Y98.296 E.01194
G1 X125.565 Y97.981 E.01188
G1 X125.836 Y97.711 E.01199
G1 X126.152 Y97.499 E.01193
G1 X126.504 Y97.353 E.01196
G1 X126.877 Y97.279 E.01191
G1 X127.259 Y97.279 E.01198
G1 X127.632 Y97.353 E.01191
G1 X127.984 Y97.499 E.01196
G1 X128.3 Y97.711 E.01193
G1 X128.57 Y97.981 E.01199
G1 X128.78 Y98.296 E.01188
G1 X128.927 Y98.648 E.01194
G1 X129.001 Y99.022 E.01195
G1 X129.001 Y99.404 E.01199
G1 X128.927 Y99.776 E.0119
G1 X128.78 Y100.128 E.01196
G1 X128.57 Y100.444 E.01189
G1 X128.299 Y100.715 E.01202
G1 X127.984 Y100.925 E.01188
G1 X127.633 Y101.072 E.01194
G1 X127.258 Y101.146 E.01197
G1 X126.878 Y101.146 E.01192
G1 X126.503 Y101.072 E.01197
G1 X126.174 Y100.934 E.01119
M204 S1000
G1 X126.331 Y100.591 F10800
M204 S800
;TYPE:External perimeter
G1 F1200
G1 X126.077 Y100.422 E.00957
G1 X125.859 Y100.204 E.00966
G1 X125.69 Y99.95 E.00957
G1 X125.571 Y99.666 E.00965
G1 X125.512 Y99.366 E.00959
G1 X125.512 Y99.059 E.0096
G1 X125.571 Y98.758 E.00963
G1 X125.69 Y98.475 E.00962
G1 X125.859 Y98.221 E.00957
G1 X126.076 Y98.003 E.00965
G1 X126.331 Y97.833 E.0096
G1 X126.614 Y97.716 E.00962
G1 X126.914 Y97.656 E.00959
G1 X127.222 Y97.656 E.00966
G1 X127.522 Y97.716 E.00959
G1 X127.805 Y97.833 E.00962
G1 X128.06 Y98.003 E.0096
G1 X128.277 Y98.221 E.00965
G1 X128.446 Y98.475 E.00957
G1 X128.565 Y98.758 E.00962
G1 X128.624 Y99.059 E.0096
G1 X128.624 Y99.367 E.00966
G1 X128.565 Y99.666 E.00956
G1 X128.446 Y99.95 E.00965
G1 X128.277 Y100.204 E.00957
G1 X128.059 Y100.422 E.00966
G1 X127.805 Y100.591 E.00957
G1 X127.522 Y100.709 E.00962
G1 X127.221 Y100.769 E.00963
G1 X126.915 Y100.769 E.0096
G1 X126.614 Y100.709 E.00963
G1 X126.386 Y100.614 E.00774
M204 S1000
G1 X126.072 Y100.752 F10800
G1 X125.99 Y101.313
M204 S800
;TYPE:Perimeter
G1 F1200
G1 X125.756 Y101.177 E.0085
G1 X125.57 Y101.039 E.00725
G1 X125.242 Y100.71 E.01456
G1 X124.985 Y100.326 E.01448
G1 X124.808 Y99.898 E.01453
G1 X124.717 Y99.444 E.01453
G1 X124.717 Y98.981 E.01449
G1 X124.808 Y98.526 E.01456
G1 X124.985 Y98.099 E.01448
G1 X125.242 Y97.714 E.01452
M73 Q4 S8
G1 X125.569 Y97.387 E.01451
G1 X125.954 Y97.13 E.01451
G1 X126.384 Y96.952 E.01458
G1 X126.835 Y96.862 E.01444
G1 X127.3 Y96.862 E.01458
G1 X127.752 Y96.952 E.01444
G1 X128.182 Y97.13 E.01458
G1 X128.566 Y97.387 E.01451
G1 X128.894 Y97.714 E.01451
G1 X129.151 Y98.099 E.01452
G1 X129.328 Y98.526 E.01448
G1 X129.419 Y98.981 E.01456
G1 X129.419 Y99.444 E.01449
G1 X129.328 Y99.898 E.01453
M73 P4 R8
G1 X129.151 Y100.326 E.01453
G1 X128.894 Y100.71 E.01448
G1 X128.566 Y101.039 E.01456
G1 X128.182 Y101.295 E.01448
G1 X127.753 Y101.472 E.01454
G1 X127.299 Y101.563 E.01452
G1 X126.837 Y101.563 E.0145
G1 X126.383 Y101.472 E.01452
G1 X126.045 Y101.338 E.01141
M204 S1000
G1 X125.83 Y101.654 F10800
M204 S800
;TYPE:External perimeter
G1 F1200
G1 X125.546 Y101.49 E.01026
G1 X125.331 Y101.33 E.00842
G1 X125.131 Y101.149 E.00844
G1 X124.95 Y100.95 E.00844
G1 X124.79 Y100.734 E.00842
G1 X124.652 Y100.504 E.00842
G1 X124.537 Y100.261 E.00844
G1 X124.447 Y100.008 E.00843
G1 X124.381 Y99.746 E.00845
G1 X124.341 Y99.481 E.00841
G1 X124.328 Y99.213 E.00842
G1 X124.341 Y98.944 E.00843
G1 X124.381 Y98.678 E.00844
G1 X124.447 Y98.417 E.00845
G1 X124.537 Y98.164 E.00842
G1 X124.652 Y97.921 E.00841
G1 X124.79 Y97.691 E.00843
G1 X124.95 Y97.475 E.00843
G1 X125.131 Y97.275 E.00845
G1 X125.33 Y97.095 E.00841
G1 X125.546 Y96.935 E.00843
G1 X125.776 Y96.797 E.00842
G1 X126.02 Y96.682 E.00844
G1 X126.274 Y96.591 E.00846
G1 X126.533 Y96.525 E.0084
G1 X126.799 Y96.486 E.00841
G1 X127.068 Y96.473 E.00845
G1 X127.337 Y96.486 E.00845
G1 X127.602 Y96.525 E.00841
G1 X127.862 Y96.591 E.0084
G1 X128.116 Y96.682 E.00846
G1 X128.36 Y96.797 E.00844
G1 X128.59 Y96.935 E.00842
G1 X128.806 Y97.095 E.00843
G1 X129.005 Y97.275 E.00841
G1 X129.186 Y97.475 E.00845
G1 X129.346 Y97.691 E.00843
G1 X129.484 Y97.921 E.00843
G1 X129.599 Y98.164 E.00841
G1 X129.689 Y98.417 E.00842
G1 X129.754 Y98.678 E.00845
G1 X129.794 Y98.944 E.00844
G1 X129.807 Y99.213 E.00843
G1 X129.794 Y99.481 E.00842
G1 X129.754 Y99.746 E.00841
G1 X129.689 Y100.008 E.00845
G1 X129.599 Y100.261 E.00843
G1 X129.484 Y100.504 E.00844
G1 X129.346 Y100.734 E.00842
G1 X129.186 Y100.95 E.00842
G1 X129.005 Y101.149 E.00844
G1 X128.805 Y101.33 E.00844
G1 X128.59 Y101.49 E.00842
G1 X128.36 Y101.628 E.00842
G1 X128.116 Y101.743 E.00844
G1 X127.863 Y101.834 E.00844
G1 X127.602 Y101.899 E.00842
G1 X127.336 Y101.939 E.00843
G1 X127.068 Y101.952 E.00843
G1 X126.799 Y101.939 E.00843
G1 X126.533 Y101.899 E.00843
G1 X126.273 Y101.834 E.00842
G1 X125.884 Y101.679 E.01313
M204 S1000
G1 X125.809 Y101.327 F10800
; stop printing object FauxVOLVER.stl id:0 copy 0
M106 S84.15
;LAYER_CHANGE
;Z:0.5
;HEIGHT:0.3
;BEFORE_LAYER_CHANGE
G92 E0.0
;0.5


;WIPE_START
G1 F8640
G1 X125.546 Y101.49 E-.08935
G1 X125.331 Y101.33 E-.06198
